findly-builder/apps/searchassist/src/assets/icons/search-interface/carrot_right.svg

<svg width="7" height="12" viewBox="0 0 7 12" fill="none" xmlns="http://www.w3.org/2000/svg">
<path fill-rule="evenodd" clip-rule="evenodd" d="M6.22214 5.4447C6.41887 5.64143 6.43044 5.9532 6.25685 6.16347L6.22214 6.20165L1.53516 10.8886C1.32613 11.0977 0.987235 11.0977 0.778209 10.8886C0.581478 10.6919 0.569906 10.3801 0.743492 10.1699L0.778209 10.1317L5.08662 5.82317L0.778209 1.51467C0.581478 1.31794 0.569906 1.00617 0.743492 0.795904L0.778209 0.757722C0.974939 0.560991 1.28671 0.549419 1.49698 0.723005L1.53516 0.757722L6.22214 5.4447Z" fill="#9AA0A6"/>
</svg>

<svg width="7" height="12" fill="none" xmlns="http://www.w3.org/2000/svg"><path fill-rule="evenodd" clip-rule="evenodd" d="M6.222 5.445a.535.535 0 0 1 .035.718l-.035.039-4.687 4.687a.535.535 0 0 1-.792-.72l.035-.037 4.309-4.309L.778 1.515a.535.535 0 0 1-.035-.72L.778.759a.535.535 0 0 1 .719-.035l.038.035 4.687 4.687Z" fill="#9AA0A6"/></svg>
